assets/images/sections/project-works/technical_documentation_pages.svg

<svg xmlns="http://www.w3.org/2000/svg" viewBox="0 0 508 508" width="40" height="40"><path d="M479.3 0H28.7C12.9 0 0 12.9 0 28.7c0 11.4 6.7 21.2 16.4 25.8v297.8h128.1L95.3 508h50l20.7-65.5h181l24.2 65.5h50.2L364 352.3h127.5V54.5c9.8-4.6 16.5-14.4 16.5-25.8C508 12.9 495.1 0 479.3 0zm-346 491.6h-15.6l44-139.3h15.6l-44 139.3zm37.9-65.5l23.3-73.7h119.4l27.2 73.7H171.2zm226.7 65.5h-15.3l-51.3-139.3h15.3l51.3 139.3zm77.4-155.7H32.8V57.4h442.5v278.5zm4-294.9H28.7c-6.8 0-12.3-5.5-12.3-12.3s5.5-12.3 12.3-12.3h450.6c6.8 0 12.3 5.5 12.3 12.3S486.1 41 479.3 41zm-340 131.1V98.4h-8.2c-45.2 0-81.9 36.804-81.9 81.9s36.7 81.905 81.9 81.905S213 225.4 213 180.298V172.1h-73.7zm-8.2 73.7c-36.1 0-65.5-29.4-65.5-65.503-.1-33.4 25-61 57.3-65.1v73.205h73.2c-4 32.296-31.7 57.398-65 57.398zm24.6-172h-8.2v90.103h90.1V155.7c0-45.2-36.8-81.9-81.9-81.9zm8.2 73.602V90.598c29.6 3.702 53.1 27.205 56.8 56.803h-56.8zm49.1 73.8v98.3h49.2v-98.3H213zm32.8 81.9h-16.4v-65.497h16.4V303.1zm32.7-114.6v131.1h49.2v-131.1h-49.2zM311.4 303.2H295v-98.3h16.4v98.3zm32.7-155.7v172.1h49.2V147.5h-49.2zm32.8 155.7h-16.4V163.902h16.4V303.2zm32.7-196.7v213.004h49.2V106.498h-49.2zm32.9 196.7h-16.4V122.9h16.4v180.3z" fill="#f1a7b3"/></svg>

<?xml version="1.0" encoding="iso-8859-1"?>
<!-- Generator: Adobe Illustrator 19.0.0, SVG Export Plug-In . SVG Version: 6.00 Build 0)  -->
<svg xmlns="http://www.w3.org/2000/svg" xmlns:xlink="http://www.w3.org/1999/xlink" version="1.1" id="Capa_1" x="0px" y="0px" viewBox="0 0 508 508" style="enable-background:new 0 0 508 508;" xml:space="preserve" width="40px" height="40px">
<g>
	<g>
		<path d="M479.3,0H28.7C12.9,0,0,12.9,0,28.7c0,11.4,6.7,21.2,16.4,25.8v297.8h128.1L95.3,508h50l20.7-65.5h181l24.2,65.5h50.2    L364,352.3h127.5V54.5c9.8-4.6,16.5-14.4,16.5-25.8C508,12.9,495.1,0,479.3,0z M133.3,491.6h-15.6l44-139.3h15.6L133.3,491.6z     M171.2,426.1L171.2,426.1l23.3-73.7h119.4l27.2,73.7H171.2z M397.9,491.6h-15.3l-51.3-139.3h15.3L397.9,491.6z M475.3,335.9h-0.1    H358h-50.2H199.6h-50H32.8V57.4h442.5V335.9z M479.3,41H28.7c-6.8,0-12.3-5.5-12.3-12.3s5.5-12.3,12.3-12.3h450.6    c6.8,0,12.3,5.5,12.3,12.3S486.1,41,479.3,41z" fill="#f1a7b3"/>
	</g>
</g>
<g>
	<g>
		<path d="M139.3,172.1V98.4h-8.2c-45.2,0-81.9,36.8-81.9,81.9c0,45.1,36.7,81.9,81.9,81.9c45.2,0,81.9-36.8,81.9-81.9v-8.2H139.3z     M131.1,245.8c-36.1,0-65.5-29.4-65.5-65.5c-0.1-33.4,25-61,57.3-65.1v73.2h73.2C192.1,220.7,164.4,245.8,131.1,245.8z" fill="#f1a7b3"/>
	</g>
</g>
<g>
	<g>
		<path d="M155.7,73.8h-8.2v90.1h90.1v-8.2C237.6,110.5,200.8,73.8,155.7,73.8z M163.9,147.4V90.6c29.6,3.7,53.1,27.2,56.8,56.8    H163.9z" fill="#f1a7b3"/>
	</g>
</g>
<g>
	<g>
		<path d="M213,221.2v98.3h49.2v-98.3H213z M245.8,303.1h-16.4v-65.5h16.4V303.1z" fill="#f1a7b3"/>
	</g>
</g>
<g>
	<g>
		<path d="M278.5,188.5v131.1h49.2V188.5H278.5z M311.4,303.2H295v-98.3h16.4V303.2z" fill="#f1a7b3"/>
	</g>
</g>
<g>
	<g>
		<path d="M344.1,147.5v172.1h49.2V147.5H344.1z M376.9,303.2h-16.4V163.9h16.4V303.2z" fill="#f1a7b3"/>
	</g>
</g>
<g>
	<g>
		<path d="M409.6,106.5v213h49.2v-213H409.6z M442.5,303.2h-16.4V122.9h16.4V303.2z" fill="#f1a7b3"/>
	</g>
</g>
<g>
</g>
<g>
</g>
<g>
</g>
<g>
</g>
<g>
</g>
<g>
</g>
<g>
</g>
<g>
</g>
<g>
</g>
<g>
</g>
<g>
</g>
<g>
</g>
<g>
</g>
<g>
</g>
<g>
</g>
</svg>
